Numix-Light/16/status/indicator-keyboard-Es-7.svg

<?xml version="1.0" encoding="UTF-8" standalone="no"?>
<svg
   xmlns:dc="http://purl.org/dc/elements/1.1/"
   xmlns:cc="http://creativecommons.org/ns#"
   xmlns:rdf="http://www.w3.org/1999/02/22-rdf-syntax-ns#"
   xmlns:svg="http://www.w3.org/2000/svg"
   xmlns="http://www.w3.org/2000/svg"
   xmlns:sodipodi="http://sodipodi.sourceforge.net/DTD/sodipodi-0.dtd"
   xmlns:inkscape="http://www.inkscape.org/namespaces/inkscape"
   viewBox="0 0 16 16"
   id="svg2"
   version="1.1"
   inkscape:version="0.91 r13725"
   sodipodi:docname="indicator-keyboard-Es-7.svg">
  <metadata
     id="metadata14">
    <rdf:RDF>
      <cc:Work
         rdf:about="">
        <dc:format>image/svg+xml</dc:format>
        <dc:type
           rdf:resource="http://purl.org/dc/dcmitype/StillImage" />
      </cc:Work>
    </rdf:RDF>
  </metadata>
  <defs
     id="defs12" />
  <sodipodi:namedview
     pagecolor="#ffffff"
     bordercolor="#666666"
     borderopacity="1"
     objecttolerance="10"
     gridtolerance="10"
     guidetolerance="10"
     inkscape:pageopacity="0"
     inkscape:pageshadow="2"
     inkscape:window-width="640"
     inkscape:window-height="480"
     id="namedview10"
     showgrid="false"
     inkscape:zoom="14.75"
     inkscape:cx="8"
     inkscape:cy="8"
     inkscape:window-x="65"
     inkscape:window-y="24"
     inkscape:window-maximized="0"
     inkscape:current-layer="svg2" />
  <path
     style="fill:#353535;fill-opacity:1"
     d="M 1.5996094 0 C 0.71320937 2.9605947e-16 0 0.71320937 0 1.5996094 L 0 14.400391 C 2.9605947e-16 15.286791 0.71320937 16 1.5996094 16 L 14.400391 16 C 15.286791 16 16 15.286791 16 14.400391 L 16 1.5996094 C 16 0.71320937 15.286791 0 14.400391 0 L 1.5996094 0 z M 2.5507812 4.859375 L 6.1503906 4.859375 L 6.1503906 5.390625 L 3.1621094 5.390625 L 3.1621094 7.5585938 L 5.8261719 7.5585938 L 5.8261719 8.0800781 L 3.1621094 8.0800781 L 3.1621094 10.564453 L 6.3847656 10.564453 L 6.3847656 11.095703 L 2.5507812 11.095703 L 2.5507812 4.859375 z M 8.7675781 6.3359375 C 9.0855781 6.3359375 9.3467812 6.3620156 9.5507812 6.4160156 C 9.7607812 6.4700156 9.9062344 6.5185469 9.9902344 6.5605469 L 9.8554688 7.0820312 C 9.7834688 7.0460313 9.6603281 6.9975 9.4863281 6.9375 C 9.3183281 6.8775 9.0702344 6.8476563 8.7402344 6.8476562 C 8.6082344 6.8476562 8.4813281 6.8625781 8.3613281 6.8925781 C 8.2473281 6.9165781 8.1466406 6.9595312 8.0566406 7.0195312 C 7.9666406 7.0735313 7.8938438 7.144375 7.8398438 7.234375 C 7.7858437 7.318375 7.7597656 7.4247812 7.7597656 7.5507812 C 7.7597656 7.6767813 7.7820781 7.7830469 7.8300781 7.8730469 C 7.8780781 7.9630469 7.9471094 8.0451875 8.0371094 8.1171875 C 8.1331094 8.1831875 8.2488594 8.2466406 8.3808594 8.3066406 C 8.5188594 8.3666406 8.6736562 8.4319062 8.8476562 8.5039062 C 9.0276562 8.5759062 9.1993281 8.6505156 9.3613281 8.7285156 C 9.5293281 8.8005156 9.6767344 8.8900469 9.8027344 8.9980469 C 9.9287344 9.1000469 10.029422 9.2269531 10.107422 9.3769531 C 10.185422 9.5209531 10.224609 9.7037813 10.224609 9.9257812 C 10.224609 10.345781 10.066047 10.664859 9.7480469 10.880859 C 9.4360469 11.096859 9.0069375 11.203125 8.4609375 11.203125 C 8.0529375 11.203125 7.7413906 11.167703 7.5253906 11.095703 C 7.3093906 11.029703 7.16575 10.979359 7.09375 10.943359 L 7.2460938 10.412109 C 7.2640938 10.424109 7.3032812 10.444609 7.3632812 10.474609 C 7.4232812 10.498609 7.5034688 10.528453 7.6054688 10.564453 C 7.7074688 10.594453 7.8287969 10.622484 7.9667969 10.646484 C 8.1107969 10.670484 8.2749375 10.681641 8.4609375 10.681641 C 8.7969375 10.681641 9.0730625 10.627531 9.2890625 10.519531 C 9.5110625 10.405531 9.6210938 10.217125 9.6210938 9.953125 C 9.6210938 9.827125 9.6005938 9.7189063 9.5585938 9.6289062 C 9.5225937 9.5389062 9.4591406 9.4587188 9.3691406 9.3867188 C 9.2791406 9.3147187 9.1597656 9.2456875 9.0097656 9.1796875 C 8.8657656 9.1136875 8.6867031 9.0353125 8.4707031 8.9453125 C 8.2967031 8.8733125 8.1306094 8.8005156 7.9746094 8.7285156 C 7.8186094 8.6505156 7.6805469 8.56475 7.5605469 8.46875 C 7.4405469 8.36675 7.3454375 8.2454219 7.2734375 8.1074219 C 7.2014375 7.9694219 7.1640625 7.8015156 7.1640625 7.6035156 C 7.1640625 7.2255156 7.3058906 6.9195469 7.5878906 6.6855469 C 7.8758906 6.4515469 8.2695781 6.3359375 8.7675781 6.3359375 z M 10.986328 8.8417969 L 13.449219 8.8417969 L 13.449219 9.1816406 C 13.316619 9.3415406 13.169666 9.5551188 13.009766 9.8242188 C 12.853766 10.089419 12.706806 10.391163 12.566406 10.726562 C 12.426006 11.058062 12.302566 11.410756 12.197266 11.785156 C 12.095866 12.159556 12.033166 12.529884 12.009766 12.896484 L 11.605469 12.896484 C 11.628869 12.572784 11.68765 12.229888 11.78125 11.867188 C 11.87875 11.504488 11.996313 11.1518 12.132812 10.8125 C 12.273212 10.4732 12.424084 10.161653 12.583984 9.8769531 C 12.747784 9.5922532 12.904541 9.3649594 13.056641 9.1933594 L 10.986328 9.1933594 L 10.986328 8.8417969 z "
     id="path4" />
</svg>

<svg xmlns="http://www.w3.org/2000/svg" viewBox="0 0 16 16">
 <path d="m 1.6 0 c -0.886 0 -1.6 0.713 -1.6 1.6 l 0 12.801 c 0 0.886 0.713 1.6 1.6 1.6 l 12.801 0 c 0.886 0 1.6 -0.713 1.6 -1.6 l 0 -12.801 c 0 -0.886 -0.713 -1.6 -1.6 -1.6 l -12.801 0 z m 0.951 4.859 l 3.6 0 l 0 0.531 l -2.988 0 l 0 2.168 l 2.664 0 l 0 0.521 l -2.664 0 l 0 2.484 l 3.223 0 l 0 0.531 l -3.834 0 l 0 -6.236 z m 6.217 1.477 c 0.318 0 0.579 0.026 0.783 0.08 c 0.21 0.054 0.355 0.103 0.439 0.145 l -0.135 0.521 c -0.072 -0.036 -0.195 -0.085 -0.369 -0.145 c -0.168 -0.06 -0.416 -0.09 -0.746 -0.09 c -0.132 0 -0.259 0.015 -0.379 0.045 c -0.114 0.024 -0.215 0.067 -0.305 0.127 c -0.09 0.054 -0.163 0.125 -0.217 0.215 c -0.054 0.084 -0.08 0.19 -0.08 0.316 c 0 0.126 0.022 0.232 0.07 0.322 c 0.048 0.09 0.117 0.172 0.207 0.244 c 0.096 0.066 0.212 0.129 0.344 0.189 c 0.138 0.06 0.293 0.125 0.467 0.197 c 0.18 0.072 0.352 0.147 0.514 0.225 c 0.168 0.072 0.315 0.162 0.441 0.27 c 0.126 0.102 0.227 0.229 0.305 0.379 c 0.078 0.144 0.117 0.327 0.117 0.549 c 0 0.42 -0.159 0.739 -0.477 0.955 c -0.312 0.216 -0.741 0.322 -1.287 0.322 c -0.408 0 -0.72 -0.035 -0.936 -0.107 c -0.216 -0.066 -0.36 -0.116 -0.432 -0.152 l 0.152 -0.531 c 0.018 0.012 0.057 0.033 0.117 0.063 c 0.06 0.024 0.14 0.054 0.242 0.09 c 0.102 0.03 0.223 0.058 0.361 0.082 c 0.144 0.024 0.308 0.035 0.494 0.035 c 0.336 0 0.612 -0.054 0.828 -0.162 c 0.222 -0.114 0.332 -0.302 0.332 -0.566 c 0 -0.126 -0.021 -0.234 -0.063 -0.324 c -0.036 -0.09 -0.099 -0.17 -0.189 -0.242 c -0.09 -0.072 -0.209 -0.141 -0.359 -0.207 c -0.144 -0.066 -0.323 -0.144 -0.539 -0.234 c -0.174 -0.072 -0.34 -0.145 -0.496 -0.217 c -0.156 -0.078 -0.294 -0.164 -0.414 -0.26 c -0.12 -0.102 -0.215 -0.223 -0.287 -0.361 c -0.072 -0.138 -0.109 -0.306 -0.109 -0.504 c 0 -0.378 0.142 -0.684 0.424 -0.918 c 0.288 -0.234 0.682 -0.35 1.18 -0.35 z m 2.219 2.506 l 2.463 0 l 0 0.34 c -0.133 0.16 -0.28 0.373 -0.439 0.643 c -0.156 0.265 -0.303 0.567 -0.443 0.902 c -0.14 0.332 -0.264 0.684 -0.369 1.059 c -0.101 0.374 -0.164 0.745 -0.188 1.111 l -0.404 0 c 0.023 -0.324 0.082 -0.667 0.176 -1.029 c 0.098 -0.363 0.215 -0.715 0.352 -1.055 c 0.14 -0.339 0.291 -0.651 0.451 -0.936 c 0.164 -0.285 0.321 -0.512 0.473 -0.684 l -2.07 0 l 0 -0.352 z" style="fill:#353535;fill-opacity:1"/>
</svg>
